16x16/actions/vcs-diff-cvs-cervisia.svg

<svg viewBox="0 0 22 22" xmlns="http://www.w3.org/2000/svg"><path d="m11 3c-4.418 0-8 1.343-8 3v10c0 1.657 3.582 3 8 3 1.551 0 3.068-.17 4.367-.488l.513-.512h-5l-.002-.002c-3.816-.02-6.878-.908-6.878-1.998v-3.549c.593.4 1.422.743 2.424 1.004l.777-.777c-1.993-.368-3.198-1-3.201-1.678v-3.549c1.408.956 4.089 1.549 7 1.549 2.914-.001 5.596-.597 7-1.555v3.555c0 .343-.312.68-.9.979l.634.634c.094-.055.182-.11.266-.168v.434l1 1v-7.879c0-1.657-3.582-3-8-3zm0 1c3.866 0 7 .895 7 2s-3.134 2-7 2-7-.895-7-2 3.134-2 7-2zm.293 6-3.5 3.5 3.5 3.5.707-.707-2.293-2.293h5.293v-1h-5.293l2.293-2.293zm5.414 3-.707.707 2.293 2.293h-5.293v1h5.293l-2.293 2.293.707.707 3.5-3.5z" fill="#555e70"/></svg>

<svg viewBox="0 0 22 22" xmlns="http://www.w3.org/2000/svg">
    <path d="M11 3C6.582 3 3 4.343 3 6v10c0 1.657 3.582 3 8 3 1.551 0 3.068-.17 4.367-.488L15.88 18h-5l-.002-.002C7.062 17.978 4 17.09 4 16v-3.549c.593.4 1.422.743 2.424 1.004l.777-.777C5.208 12.31 4.003 11.678 4 11V7.451C5.408 8.407 8.089 9 11 9c2.914-.001 5.596-.597 7-1.555V11c0 .343-.312.68-.9.979l.634.634a4.19 4.19 0 0 0 .266-.168v.434l1 1V6c0-1.657-3.582-3-8-3zm0 1c3.866 0 7 .895 7 2s-3.134 2-7 2-7-.895-7-2 3.134-2 7-2zm.293 6-3.5 3.5 3.5 3.5.707-.707L9.707 14H15v-1H9.707L12 10.707zm5.414 3-.707.707L18.293 16H13v1h5.293L16 19.293l.707.707 3.5-3.5z" fill="#555e70"/>
</svg>
